img/icons/google-play-badge.svg

<svg width="135" height="40" viewBox="0 0 135 40" fill="none" xmlns="http://www.w3.org/2000/svg">
<path d="M130 39.9999H5C2.25 39.9999 0 37.75 0 35V4.99999C0 2.25 2.25 0 5 0H130C132.75 0 135 2.25 135 4.99999V35C135 37.75 132.75 39.9999 130 39.9999Z" fill="black"/>
<path d="M130 0.799999C132.32 0.799999 134.2 2.68 134.2 4.99999V35C134.2 37.32 132.32 39.2 130 39.2H5C2.68 39.2 0.8 37.32 0.8 35V4.99999C0.8 2.68 2.68 0.799999 5 0.799999H130ZM130 0H5C2.25 0 0 2.25 0 4.99999V35C0 37.75 2.25 39.9999 5 39.9999H130C132.75 39.9999 135 37.75 135 35V4.99999C135 2.25 132.75 0 130 0Z" fill="#A6A6A6"/>
<path d="M47.42 10.2399C47.42 11.0799 47.17 11.7499 46.67 12.2399C46.11 12.8299 45.37 13.1299 44.47 13.1299C43.6 13.1299 42.87 12.8299 42.26 12.2299C41.65 11.6299 41.35 10.8799 41.35 9.99991C41.35 9.1099 41.65 8.36989 42.26 7.76988C42.87 7.16988 43.6 6.86987 44.47 6.86987C44.9 6.86987 45.31 6.94987 45.7 7.11988C46.09 7.28988 46.4 7.50988 46.64 7.78988L46.11 8.31989C45.71 7.84988 45.17 7.60988 44.47 7.60988C43.84 7.60988 43.29 7.82988 42.83 8.27989C42.37 8.7199 42.14 9.2999 42.14 10.0099C42.14 10.7199 42.37 11.2999 42.83 11.7399C43.29 12.1799 43.84 12.4099 44.47 12.4099C45.14 12.4099 45.7 12.1899 46.15 11.7399C46.44 11.4499 46.61 11.0399 46.65 10.5199H44.47V9.79991H47.38C47.4 9.94991 47.42 10.0999 47.42 10.2399Z" fill="white" stroke="white" stroke-width="0.2" stroke-miterlimit="10"/>
<path d="M52.03 7.73976H49.3V9.63976H51.76V10.3598H49.3V12.2598H52.03V12.9998H48.53V6.99976H52.03V7.73976Z" fill="white" stroke="white" stroke-width="0.2" stroke-miterlimit="10"/>
<path d="M55.28 12.9998H54.51V7.73976H52.83V6.99976H56.95V7.73976H55.27V12.9998H55.28Z" fill="white" stroke="white" stroke-width="0.2" stroke-miterlimit="10"/>
<path d="M59.94 12.9998V6.99976H60.71V12.9998H59.94Z" fill="white" stroke="white" stroke-width="0.2" stroke-miterlimit="10"/>
<path d="M64.13 12.9998H63.36V7.73976H61.68V6.99976H65.8V7.73976H64.12V12.9998H64.13Z" fill="white" stroke="white" stroke-width="0.2" stroke-miterlimit="10"/>
<path d="M73.61 12.2199C73.02 12.8299 72.29 13.1299 71.41 13.1299C70.53 13.1299 69.8 12.8299 69.21 12.2199C68.62 11.6099 68.33 10.8699 68.33 9.99991C68.33 9.1299 68.62 8.37989 69.21 7.77988C69.8 7.16988 70.53 6.86987 71.41 6.86987C72.28 6.86987 73.01 7.16988 73.61 7.77988C74.2 8.38989 74.5 9.1299 74.5 9.99991C74.49 10.8799 74.2 11.6199 73.61 12.2199ZM69.78 11.7199C70.22 12.1699 70.77 12.3899 71.41 12.3899C72.05 12.3899 72.6 12.1699 73.04 11.7199C73.48 11.2699 73.71 10.6999 73.71 9.99991C73.71 9.2999 73.49 8.7299 73.04 8.27989C72.6 7.82988 72.05 7.60988 71.41 7.60988C70.77 7.60988 70.22 7.82988 69.78 8.27989C69.34 8.7299 69.11 9.2999 69.11 9.99991C69.11 10.6999 69.34 11.2699 69.78 11.7199Z" fill="white" stroke="white" stroke-width="0.2" stroke-miterlimit="10"/>
<path d="M75.58 12.9998V6.99976H76.52L79.44 11.6698H79.47L79.44 10.5098V6.99976H80.21V12.9998H79.41L76.36 8.10976H76.33L76.36 9.26976V12.9998H75.58Z" fill="white" stroke="white" stroke-width="0.2" stroke-miterlimit="10"/>
<path d="M68.14 21.7501C65.79 21.7501 63.87 23.5401 63.87 26.0001C63.87 28.4501 65.79 30.2501 68.14 30.2501C70.49 30.2501 72.41 28.4501 72.41 26.0001C72.41 23.5401 70.49 21.7501 68.14 21.7501ZM68.14 28.5801C66.85 28.5801 65.74 27.5201 65.74 26.0001C65.74 24.4701 66.85 23.4201 68.14 23.4201C69.43 23.4201 70.54 24.4701 70.54 26.0001C70.54 27.5201 69.42 28.5801 68.14 28.5801ZM58.82 21.7501C56.47 21.7501 54.55 23.5401 54.55 26.0001C54.55 28.4501 56.47 30.2501 58.82 30.2501C61.17 30.2501 63.09 28.4501 63.09 26.0001C63.09 23.5401 61.17 21.7501 58.82 21.7501ZM58.82 28.5801C57.53 28.5801 56.42 27.5201 56.42 26.0001C56.42 24.4701 57.53 23.4201 58.82 23.4201C60.11 23.4201 61.22 24.4701 61.22 26.0001C61.22 27.5201 60.11 28.5801 58.82 28.5801ZM47.74 23.0601V24.8601H52.06C51.93 25.8701 51.59 26.6201 51.08 27.1301C50.45 27.7601 49.47 28.4501 47.75 28.4501C45.09 28.4501 43.01 26.3101 43.01 23.6501C43.01 20.9901 45.09 18.8501 47.75 18.8501C49.18 18.8501 50.23 19.4101 51 20.1401L52.27 18.8701C51.19 17.8401 49.76 17.05 47.74 17.05C44.1 17.05 41.04 20.0101 41.04 23.6601C41.04 27.3001 44.1 30.2701 47.74 30.2701C49.71 30.2701 51.19 29.6301 52.35 28.4201C53.54 27.2301 53.91 25.5501 53.91 24.2001C53.91 23.7801 53.88 23.3901 53.81 23.0701H47.74V23.0601ZM93.05 24.4601C92.7 23.5101 91.62 21.7501 89.41 21.7501C87.22 21.7501 85.4 23.4701 85.4 26.0001C85.4 28.3801 87.2 30.2501 89.62 30.2501C91.57 30.2501 92.7 29.0601 93.16 28.3701L91.71 27.4001C91.23 28.1101 90.57 28.5801 89.62 28.5801C88.67 28.5801 87.99 28.1401 87.56 27.2901L93.25 24.9401L93.05 24.4601ZM87.25 25.8801C87.2 24.2401 88.52 23.4001 89.47 23.4001C90.21 23.4001 90.84 23.7701 91.05 24.3001L87.25 25.8801ZM82.63 30.0001H84.5V17.5001H82.63V30.0001ZM79.57 22.7001H79.5C79.08 22.2001 78.28 21.7501 77.26 21.7501C75.13 21.7501 73.18 23.6201 73.18 26.0201C73.18 28.4001 75.13 30.2601 77.26 30.2601C78.27 30.2601 79.08 29.8101 79.5 29.2901H79.56V29.9001C79.56 31.5301 78.69 32.4001 77.29 32.4001C76.15 32.4001 75.44 31.5801 75.15 30.8901L73.52 31.5701C73.99 32.7001 75.23 34.0802 77.29 34.0802C79.48 34.0802 81.33 32.7901 81.33 29.6501V22.0101H79.56V22.7001H79.57ZM77.42 28.5801C76.13 28.5801 75.05 27.5001 75.05 26.0201C75.05 24.5201 76.13 23.4301 77.42 23.4301C78.69 23.4301 79.69 24.5301 79.69 26.0201C79.7 27.5001 78.7 28.5801 77.42 28.5801ZM101.81 17.5001H97.34V30.0001H99.21V25.2601H101.82C103.89 25.2601 105.92 23.7601 105.92 21.3801C105.92 19.0001 103.87 17.5001 101.81 17.5001ZM101.85 23.5201H99.2V19.2301H101.85C103.25 19.2301 104.04 20.3901 104.04 21.3701C104.04 22.3501 103.25 23.5201 101.85 23.5201ZM113.39 21.7301C112.04 21.7301 110.64 22.3301 110.06 23.6401L111.72 24.3301C112.07 23.6401 112.73 23.4101 113.42 23.4101C114.38 23.4101 115.37 23.9901 115.38 25.0201V25.1501C115.04 24.9601 114.32 24.6701 113.43 24.6701C111.64 24.6701 109.83 25.6501 109.83 27.4801C109.83 29.1501 111.29 30.2301 112.93 30.2301C114.18 30.2301 114.88 29.6701 115.31 29.0101H115.37V29.9801H117.17V25.1901C117.18 22.9701 115.52 21.7301 113.39 21.7301ZM113.16 28.5801C112.55 28.5801 111.7 28.2701 111.7 27.5201C111.7 26.5601 112.76 26.1901 113.68 26.1901C114.5 26.1901 114.89 26.3701 115.38 26.6101C115.24 27.7601 114.24 28.5801 113.16 28.5801ZM123.74 22.0001L121.6 27.4201H121.54L119.32 22.0001H117.31L120.64 29.5801L118.74 33.7901H120.69L125.82 22.0001H123.74ZM106.94 30.0001H108.81V17.5001H106.94V30.0001Z" fill="white"/>
<path d="M10.44 7.53997C10.15 7.84997 9.97998 8.32997 9.97998 8.93997V31.0599C9.97998 31.6799 10.15 32.1599 10.44 32.4599L10.51 32.5299L22.9 20.1499V19.9999V19.8499L10.51 7.46997L10.44 7.53997Z" fill="url(#paint0_linear_32462_334)"/>
<path d="M27.03 24.2799L22.9 20.1499V19.9999V19.8499L27.03 15.72L27.12 15.77L32.01 18.55C33.41 19.3399 33.41 20.6399 32.01 21.4399L27.12 24.2199L27.03 24.2799Z" fill="url(#paint1_linear_32462_334)"/>
<path d="M27.12 24.22L22.9 20L10.44 32.46C10.9 32.95 11.66 33.01 12.52 32.52L27.12 24.22Z" fill="url(#paint2_linear_32462_334)"/>
<path d="M27.12 15.78L12.51 7.47999C11.65 6.98999 10.89 7.04999 10.43 7.53999L22.9 20L27.12 15.78Z" fill="url(#paint3_linear_32462_334)"/>
<path opacity="0.2" d="M27.03 24.1299L12.51 32.3798C11.7 32.8398 10.97 32.8098 10.51 32.3898L10.44 32.4598L10.51 32.5298C10.98 32.9498 11.7 32.9798 12.51 32.5198L27.12 24.2199L27.03 24.1299Z" fill="black"/>
<path opacity="0.12" d="M10.44 32.3201C10.15 32.0101 9.97998 31.5302 9.97998 30.9202V31.0702C9.97998 31.6901 10.15 32.1701 10.44 32.4701L10.51 32.4001L10.44 32.3201Z" fill="black"/>
<path opacity="0.12" d="M32.01 21.3L27.02 24.1301L27.11 24.2201L32 21.44C32.7 21.04 33.05 20.52 33.05 20C33 20.47 32.65 20.94 32.01 21.3Z" fill="black"/>
<path opacity="0.25" d="M12.51 7.61994L32.01 18.7C32.64 19.06 33 19.52 33.06 20C33.06 19.48 32.71 18.95 32.01 18.56L12.51 7.47994C11.11 6.68994 9.96997 7.34994 9.96997 8.94994V9.09994C9.96997 7.48994 11.12 6.82994 12.51 7.61994Z" fill="white"/>
<defs>
<linearGradient id="paint0_linear_32462_334" x1="21.7997" y1="8.70967" x2="5.01737" y2="25.4921" gradientUnits="userSpaceOnUse">
<stop stop-color="#00A0FF"/>
<stop offset="0.00657445" stop-color="#00A1FF"/>
<stop offset="0.2601" stop-color="#00BEFF"/>
<stop offset="0.5122" stop-color="#00D2FF"/>
<stop offset="0.7604" stop-color="#00DFFF"/>
<stop offset="1" stop-color="#00E3FF"/>
</linearGradient>
<linearGradient id="paint1_linear_32462_334" x1="33.8344" y1="20.0013" x2="9.63756" y2="20.0013" gradientUnits="userSpaceOnUse">
<stop stop-color="#FFE000"/>
<stop offset="0.4087" stop-color="#FFBD00"/>
<stop offset="0.7754" stop-color="#FFA500"/>
<stop offset="1" stop-color="#FF9C00"/>
</linearGradient>
<linearGradient id="paint2_linear_32462_334" x1="24.827" y1="22.2961" x2="2.06875" y2="45.0544" gradientUnits="userSpaceOnUse">
<stop stop-color="#FF3A44"/>
<stop offset="1" stop-color="#C31162"/>
</linearGradient>
<linearGradient id="paint3_linear_32462_334" x1="7.29728" y1="0.176203" x2="17.4599" y2="10.3387" gradientUnits="userSpaceOnUse">
<stop stop-color="#32A071"/>
<stop offset="0.0685" stop-color="#2DA771"/>
<stop offset="0.4762" stop-color="#15CF74"/>
<stop offset="0.8009" stop-color="#06E775"/>
<stop offset="1" stop-color="#00F076"/>
</linearGradient>
</defs>
</svg>

<svg xmlns="http://www.w3.org/2000/svg" width="135" height="40" fill="none"><path fill="#000" d="M130 40H5c-2.75 0-5-2.25-5-5V5c0-2.75 2.25-5 5-5h125c2.75 0 5 2.25 5 5v30c0 2.75-2.25 5-5 5Z"/><path fill="#A6A6A6" d="M130 .8a4.2 4.2 0 0 1 4.2 4.2v30a4.2 4.2 0 0 1-4.2 4.2H5A4.2 4.2 0 0 1 .8 35V5A4.2 4.2 0 0 1 5 .8h125Zm0-.8H5C2.25 0 0 2.25 0 5v30c0 2.75 2.25 5 5 5h125c2.75 0 5-2.25 5-5V5c0-2.75-2.25-5-5-5Z"/><path fill="#fff" stroke="#fff" stroke-miterlimit="10" stroke-width=".2" d="M47.42 10.24c0 .84-.25 1.51-.75 2-.56.59-1.3.89-2.2.89-.87 0-1.6-.3-2.21-.9-.61-.6-.91-1.35-.91-2.23 0-.89.3-1.63.91-2.23.61-.6 1.34-.9 2.21-.9.43 0 .84.08 1.23.25.39.17.7.39.94.67l-.53.53c-.4-.47-.94-.71-1.64-.71-.63 0-1.18.22-1.64.67-.46.44-.69 1.02-.69 1.73s.23 1.29.69 1.73c.46.44 1.01.67 1.64.67.67 0 1.23-.22 1.68-.67.29-.29.46-.7.5-1.22h-2.18V9.8h2.91c.02.15.04.3.04.44ZM52.03 7.74H49.3v1.9h2.46v.72H49.3v1.9h2.73V13h-3.5V7h3.5v.74ZM55.28 13h-.77V7.74h-1.68V7h4.12v.74h-1.68V13h.01ZM59.94 13V7h.77v6h-.77ZM64.13 13h-.77V7.74h-1.68V7h4.12v.74h-1.68V13h.01ZM73.61 12.22c-.59.61-1.32.91-2.2.91-.88 0-1.61-.3-2.2-.91-.59-.61-.88-1.35-.88-2.22 0-.87.29-1.62.88-2.22.59-.61 1.32-.91 2.2-.91.87 0 1.6.3 2.2.91.59.61.89 1.35.89 2.22-.01.88-.3 1.62-.89 2.22Zm-3.83-.5c.44.45.99.67 1.63.67.64 0 1.19-.22 1.63-.67.44-.45.67-1.02.67-1.72s-.22-1.27-.67-1.72c-.44-.45-.99-.67-1.63-.67-.64 0-1.19.22-1.63.67-.44.45-.67 1.02-.67 1.72s.23 1.27.67 1.72ZM75.58 13V7h.94l2.92 4.67h.03l-.03-1.16V7h.77v6h-.8l-3.05-4.89h-.03l.03 1.16V13h-.78Z"/><path fill="#fff" d="M68.14 21.75c-2.35 0-4.27 1.79-4.27 4.25 0 2.45 1.92 4.25 4.27 4.25 2.35 0 4.27-1.8 4.27-4.25 0-2.46-1.92-4.25-4.27-4.25Zm0 6.83c-1.29 0-2.4-1.06-2.4-2.58 0-1.53 1.11-2.58 2.4-2.58 1.29 0 2.4 1.05 2.4 2.58 0 1.52-1.12 2.58-2.4 2.58Zm-9.32-6.83c-2.35 0-4.27 1.79-4.27 4.25 0 2.45 1.92 4.25 4.27 4.25 2.35 0 4.27-1.8 4.27-4.25 0-2.46-1.92-4.25-4.27-4.25Zm0 6.83c-1.29 0-2.4-1.06-2.4-2.58 0-1.53 1.11-2.58 2.4-2.58 1.29 0 2.4 1.05 2.4 2.58 0 1.52-1.11 2.58-2.4 2.58Zm-11.08-5.52v1.8h4.32c-.13 1.01-.47 1.76-.98 2.27-.63.63-1.61 1.32-3.33 1.32-2.66 0-4.74-2.14-4.74-4.8 0-2.66 2.08-4.8 4.74-4.8 1.43 0 2.48.56 3.25 1.29l1.27-1.27c-1.08-1.03-2.51-1.82-4.53-1.82-3.64 0-6.7 2.96-6.7 6.61 0 3.64 3.06 6.61 6.7 6.61 1.97 0 3.45-.64 4.61-1.85 1.19-1.19 1.56-2.87 1.56-4.22 0-.42-.03-.81-.1-1.13h-6.07v-.01Zm45.31 1.4c-.35-.95-1.43-2.71-3.64-2.71-2.19 0-4.01 1.72-4.01 4.25 0 2.38 1.8 4.25 4.22 4.25 1.95 0 3.08-1.19 3.54-1.88l-1.45-.97c-.48.71-1.14 1.18-2.09 1.18s-1.63-.44-2.06-1.29l5.69-2.35-.2-.48Zm-5.8 1.42c-.05-1.64 1.27-2.48 2.22-2.48.74 0 1.37.37 1.58.9l-3.8 1.58ZM82.63 30h1.87V17.5h-1.87V30Zm-3.06-7.3h-.07c-.42-.5-1.22-.95-2.24-.95-2.13 0-4.08 1.87-4.08 4.27 0 2.38 1.95 4.24 4.08 4.24 1.01 0 1.82-.45 2.24-.97h.06v.61c0 1.63-.87 2.5-2.27 2.5-1.14 0-1.85-.82-2.14-1.51l-1.63.68c.47 1.13 1.71 2.51 3.77 2.51 2.19 0 4.04-1.29 4.04-4.43v-7.64h-1.77v.69h.01Zm-2.15 5.88c-1.29 0-2.37-1.08-2.37-2.56 0-1.5 1.08-2.59 2.37-2.59 1.27 0 2.27 1.1 2.27 2.59.01 1.48-.99 2.56-2.27 2.56Zm24.39-11.08h-4.47V30h1.87v-4.74h2.61c2.07 0 4.1-1.5 4.1-3.88s-2.05-3.88-4.11-3.88Zm.04 6.02H99.2v-4.29h2.65c1.4 0 2.19 1.16 2.19 2.14 0 .98-.79 2.15-2.19 2.15Zm11.54-1.79c-1.35 0-2.75.6-3.33 1.91l1.66.69c.35-.69 1.01-.92 1.7-.92.96 0 1.95.58 1.96 1.61v.13c-.34-.19-1.06-.48-1.95-.48-1.79 0-3.6.98-3.6 2.81 0 1.67 1.46 2.75 3.1 2.75 1.25 0 1.95-.56 2.38-1.22h.06v.97h1.8v-4.79c.01-2.22-1.65-3.46-3.78-3.46Zm-.23 6.85c-.61 0-1.46-.31-1.46-1.06 0-.96 1.06-1.33 1.98-1.33.82 0 1.21.18 1.7.42a2.257 2.257 0 0 1-2.22 1.97ZM123.74 22l-2.14 5.42h-.06L119.32 22h-2.01l3.33 7.58-1.9 4.21h1.95L125.82 22h-2.08Zm-16.8 8h1.87V17.5h-1.87V30Z"/><path fill="url(#a)" d="M10.44 7.54c-.29.31-.46.79-.46 1.4v22.12c0 .62.17 1.1.46 1.4l.07.07L22.9 20.15v-.3L10.51 7.47l-.07.07Z"/><path fill="url(#b)" d="m27.03 24.28-4.13-4.13v-.3l4.13-4.13.09.05 4.89 2.78c1.4.79 1.4 2.09 0 2.89l-4.89 2.78-.09.06Z"/><path fill="url(#c)" d="M27.12 24.22 22.9 20 10.44 32.46c.46.49 1.22.55 2.08.06l14.6-8.3Z"/><path fill="url(#d)" d="m27.12 15.78-14.61-8.3c-.86-.49-1.62-.43-2.08.06L22.9 20l4.22-4.22Z"/><path fill="#000" d="m27.03 24.13-14.52 8.25c-.81.46-1.54.43-2 .01l-.07.07.07.07c.47.42 1.19.45 2-.01l14.61-8.3-.09-.09Z" opacity=".2"/><path fill="#000" d="M10.44 32.32c-.29-.31-.46-.79-.46-1.4v.15c0 .62.17 1.1.46 1.4l.07-.07-.07-.08ZM32.01 21.3l-4.99 2.83.09.09L32 21.44c.7-.4 1.05-.92 1.05-1.44-.05.47-.4.94-1.04 1.3Z" opacity=".12"/><path fill="#fff" d="m12.51 7.62 19.5 11.08c.63.36.99.82 1.05 1.3 0-.52-.35-1.05-1.05-1.44L12.51 7.48c-1.4-.79-2.54-.13-2.54 1.47v.15c0-1.61 1.15-2.27 2.54-1.48Z" opacity=".25"/><defs><linearGradient id="a" x1="21.8" x2="5.017" y1="8.71" y2="25.492" gradientUnits="userSpaceOnUse"><stop stop-color="#00A0FF"/><stop offset=".007" stop-color="#00A1FF"/><stop offset=".26" stop-color="#00BEFF"/><stop offset=".512" stop-color="#00D2FF"/><stop offset=".76" stop-color="#00DFFF"/><stop offset="1" stop-color="#00E3FF"/></linearGradient><linearGradient id="b" x1="33.834" x2="9.638" y1="20.001" y2="20.001" gradientUnits="userSpaceOnUse"><stop stop-color="#FFE000"/><stop offset=".409" stop-color="#FFBD00"/><stop offset=".775" stop-color="orange"/><stop offset="1" stop-color="#FF9C00"/></linearGradient><linearGradient id="c" x1="24.827" x2="2.069" y1="22.296" y2="45.054" gradientUnits="userSpaceOnUse"><stop stop-color="#FF3A44"/><stop offset="1" stop-color="#C31162"/></linearGradient><linearGradient id="d" x1="7.297" x2="17.46" y1=".176" y2="10.339" gradientUnits="userSpaceOnUse"><stop stop-color="#32A071"/><stop offset=".069" stop-color="#2DA771"/><stop offset=".476" stop-color="#15CF74"/><stop offset=".801" stop-color="#06E775"/><stop offset="1" stop-color="#00F076"/></linearGradient></defs></svg>
